!!!OTL: Shuangqing xiaoyangge
!!!ARE: Asia, China,ÿNeimeng.Tuoxian
!! IV, 370
!!!SCT: C1695
!!!YEM: Copyright 1995, estate of Helmut Schaffrath.
**kern
*ICvox
*Ivox
*M2/4
*k[]
*C:
{4ee
8ee
8dd
=1
8ee
8gg
8ee
8dd
=2
4ee
8cc
8dd#
=3
2cc}
=4
{8.ee
16gg
8ee
8dd
=5
2ee
=6
4cc
8g
8a
=7
2g}
=8
{4ee
8.ee
16gg
=9
8.cc
16dd
8b
8a
=10
4cc
8g
8a
=11
2g}
=12
{4ee
8ee
8dd#
=13
8.ee
16gg
8ee
8dd
=14
8.ee
16gg
8cc#
8dd
=15
2cc}
=16
{4dd
8dd
8ee
=17
8.cc
16dd
8b
8a
=18
4cc
8g
8a
=19
2g}
=20
{4ee
8ee
8dd
=21
8.ee
16gg
8ee
8dd
=22
8ee
4cc#
8dd
=23
2cc}
=24
{4dd
8dd
8ee
=25
8.cc
16dd
8b
8a
=26
4cc
8g
8a
=27
2g}
=28
{8.ee
16gg
8ee
8dd
=29
2cc
=30
4cc
8g
8a
=31
2g}
=32
{8.ee
16dd
8ee
8gg
=33
8.cc
16dd
8b
8a
=34
4cc
8g
8a
=35
2g}
=36
{4ee
8ee
8dd#
=37
8.ee
16gg
8ee
8dd
=38
4ee
8cc#
8dd
=39
2cc}
=40
{8.ee
16gg
8ee
8dd
=41
8.ee
16gg
8ee
8dd
=42
4.cc
8dd
=43
2ee
=44
8a
8cc
4g
=45
8a
4.g}
==
!!!AGN: Wuge, Yangge, Shehuo
!!!AMT: simple duple
!!!AIN: vox
!!!EED: Helmut Schaffrath
!!!EEV: 1.0
*-
